icons/training.svg

<svg xmlns="http://www.w3.org/2000/svg" viewBox="0 0 51.26 51.26">
  <g fill="#FFFFFF">
    <circle cx="11.63" cy="22.04" r="5.54"/>
    <path d="M46.68 10.54H21.31a2.05 2.05 0 0 0-2 2.05v1.58a2 2 0 0 0 1.84 2v12.28h-9.52a10.3 10.3 0 0 0-8.57 4.6 3.27 3.27 0 0 0-.53 1.8v3.95a1.91 1.91 0 0 0 1.92 1.91h14.37a1.9 1.9 0 0 0 1.85-1.44 1.48 1.48 0 0 0 0-.78L19.1 32.4h2v1.85a.62.62 0 0 0 .62.63h24.55a.63.63 0 0 0 .62-.63v-18a2 2 0 0 0 1.83-2v-1.66a2 2 0 0 0-2.04-2.05ZM22.35 33.63V32.4h3a2 2 0 1 0 0-3.95h-3V16.22h23.29v17.41Z"/>
    <path d="M43.46 19.09H24.94a.63.63 0 1 0 0 1.25h18.52a.63.63 0 1 0 0-1.25ZM43.46 22.58H24.94a.63.63 0 1 0 0 1.25h18.52a.63.63 0 1 0 0-1.25ZM43.46 26.08H24.94a.63.63 0 1 0 0 1.25h18.52a.63.63 0 1 0 0-1.25ZM43.46 29.57H29.94a.63.63 0 1 0 0 1.25h13.52a.63.63 0 1 0 0-1.25Z"/>
  </g>
</svg>

<svg xmlns="http://www.w3.org/2000/svg" viewBox="0 0 51.26 51.26"><defs><style>.cls-1{fill:#fff;}</style></defs><g id="Layer_2" data-name="Layer 2"><circle class="cls-1" cx="11.63" cy="22.04" r="5.54"/><path class="cls-1" d="M46.68,10.54H21.31a2.05,2.05,0,0,0-2,2.05v1.58a2,2,0,0,0,1.84,2V28.45H11.63a10.3,10.3,0,0,0-8.57,4.6,3.27,3.27,0,0,0-.53,1.8V38.8a1.91,1.91,0,0,0,1.92,1.91H18.82a1.9,1.9,0,0,0,1.85-1.44,1.48,1.48,0,0,0,0-.78L19.1,32.4h2v1.85a.62.62,0,0,0,.62.63H46.27a.63.63,0,0,0,.62-.63v-18a2,2,0,0,0,1.83-2V12.59A2,2,0,0,0,46.68,10.54ZM22.35,33.63V32.4h3a2,2,0,1,0,0-3.95h-3V16.22H45.64V33.63Z"/><path class="cls-1" d="M43.46,19.09H24.94a.63.63,0,1,0,0,1.25H43.46a.63.63,0,1,0,0-1.25Z"/><path class="cls-1" d="M43.46,22.58H24.94a.63.63,0,1,0,0,1.25H43.46a.63.63,0,1,0,0-1.25Z"/><path class="cls-1" d="M43.46,26.08H24.94a.63.63,0,1,0,0,1.25H43.46a.63.63,0,1,0,0-1.25Z"/><path class="cls-1" d="M43.46,29.57H29.94a.63.63,0,1,0,0,1.25H43.46a.63.63,0,1,0,0-1.25Z"/></g></svg>
